X:1
T:Title
%%score [ ( 1 2 ) ( 3 4 ) ]
L:1/8
Q:1/4=85
M:3/4
K:G
V:1 treble-8 nm="Tenor I Tenor II"
V:2 treble-8 
V:3 bass nm="Bass Baritone"
V:4 bass 
V:1
!mp! B4 B2 | B3 ^c d2 | (^c3 d) (dc) |!<(! d6!<)! | !breath!d2 d2 d2 | d4 d2 | ^d4 d2 | %7
!>(! e6!>)! | e2 e3 e | d3 d d2 | c2 d2 c2 | B4 BB | BA A2 A2 |!<(! e2 e2 e2!<)! | %14
!p! e2!>(! d2!>)! z2 | d2 d2 d2 | c2 d3 c | B6 | A2 B2 c2 | (B4!>(! A2) | B6!>)! ||!pp! B4 B2 | %22
 (B2 ^c2) d2 | ^c3 d dc | d6 | !breath!d4 d2 | d4 d2 | ^d3 d dd | e6 |!mf! e4 e2 | d4 d2 | %31
 (c2 d2) c2 | B2 B2 BB | (B!<(!A) A2 AA | e2 e2 ee!<)! |!p! e2 d2 z2 | d4 d2 | c2 d2 dc | B4 B2 | %39
 (A2 B2) c2 | B4!>(! A2 | B6!>)! |] %42
V:2
 F4 F2 | G3 A A2 | A4 A2 | (A4 B2) | c2 B2 A2 | (A2 B2) B2 | (AB c2) (BA) | G6 | G2 G3 G | %9
w: Of Thy|mys- ti- cal|Sup- per,|Lord, *|let me par-|take, * O|Son * * of *|God,|for of Thy|
 ^G3 G (FG) | A2 A2 A2 | G4 GG | GG G2 G2 | A2 A2 (AB) | c2 c2 z2 | B2 A2 G2 | F2 E3 F | (A4 G2) | %18
w: mys- te- ries *|I will not|speak to Thy|en- e- mies nor|kiss Thee like *|Ju- das,|but like a|thief on the|cross *|
 G2 G2 G2 | (G3 F EF) | G6 || F4 F2 | (G2 A2) A2 | A3 A AA | (A4 B2) | (c2 B2) A2 | (A2 B2) B2 | %27
w: I will con-|fess * * *|Thee:|"In Thy|King- * dom,|Lord, re- mem- ber|me, *|In * Thy|King- * dom,|
 A3 c BA | G6 | G4 G2 | ^G4 (FG) | A4 A2 | G2 G2 GG | G2 G2 GG | A2 A2 AB | c2 c2 z2 | (B2 A2) G2 | %37
w: Lord, re- mem- ber|me."|Al- le-|lu- ia, *|Al- le-|lu- ia, Al- le-|lu- ia, Al- le-|lu- ia, Al- le-|lu- ia,|Al- * le-|
 F2 F2 EF | A4 G2 | G4 G2 | (G3 F EF) | G6 |] %42
w: lu- ia, Al- le-|lu- ia,|Al- le-|lu- * i- *|a.|
V:3
!mp! (D,2 E,2) F,2 | G,3 G, G,2 | G,4 G,2 |!<(! F,6!<)! | A,2 G,2 F,2 | (F,2 G,2) G,2 | %6
 F,G, A,2 G,F, |!>(! F,4-!>)! E,2 |!p!!p! E,2 E,3 E, | E,3 E, E,2 | E,2 (E,G,) (F,E,) | E,4 E,G, | %12
 F,E, E,2!<(! (E,F,) | (G,F,) (G,B,) (A,G,)!<)! | G,2!>(! F,2!>)! z2 |!p! G,2 F,2 G,2 | %16
 D,2 D,3 D, | D,6 | E,2 E,2 E,2 | D,6 |!>(! D,6!>)! ||!pp! (D,2 E,2) F,2 | G,4 G,2 | G,3 G, G,G, | %24
 F,6 | (!breath!A,2 G,2) F,2 | (F,2 G,2) G,2 | F,3 A, G,F, | (F,4 E,2) |!mf! E,4 E,2 | %30
 E,3 =F, E,2 | (E,2- E,G,) (F,E,) | E,2 E,2 E,G, | (F,!<(!E,) E,2 E,F, | (G,F,) (G,B,) (A,!<)!G,) | %35
!p! G,2 F,2 z2 | (G,2 F,2) G,2 | D,2 D,2 D,D, | D,4 D,2 | E,4 E,2 | D,4!>(! D,2 | D,6!>)! |] %42
V:4
 (B,,2 ^C,2) D,2 | E,3 E, E,2 | E,4 E,2 | D,6 | D,2 D,2 D,2 | (G,,3 A,,) B,,2 | B,,4 B,,2 | C,6 | %8
 C,2 C,3 C, | B,,3 B,, B,,2 | A,,2 B,,2 A,,2 | B,,4 B,,B,, | C,C, C,2 C,2 | ^C,2 C,2 C,2 | %14
 D,2 D,2 z2 | D,2 C,2 B,,2 | A,,2 A,,3 A,, | G,,6 | C,2 B,,2 A,,2 | D,6 | G,,6 || (B,,2 ^C,2) D,2 | %22
 E,4 E,2 | E,3 E, E,E, | D,6 | D,4 D,2 | (G,,3 A,,) B,,2 | B,,3 B,, B,,B,, | C,6 | C,4 C,2 | %30
 B,,4 B,,2 | (A,,2 B,,2) A,,2 | B,,2 B,,2 B,,B,, | C,2 C,2 C,C, | ^C,2 C,2 C,C, | D,2 D,2 z2 | %36
 (D,2 C,2) B,,2 | A,,2 A,,2 A,,A,, | G,,4 G,,2 | (C,2 B,,2) A,,2 | D,4 D,2 | G,,6 |] %42

